!!!COM: Bach, Johann Sebastian
!!!OPR: Joh. Seb. Bachs vierstimmige Choralges‰nge
!!!XEN: Four-part Chorales
!!!OTL: 153. O wie selig seid ihr doch, ihr Frommen
!!!SCT: BWV 406
!!!SCA: Thematisch-systematisches Verzeichnis der musikalischen Werke Johann Sebastian Bach: Bach-Werke-Verzeichnis (Schmieder)
!!!YOR: Bach Gesellschaft Edition xxxix
!!!ENC: Steven Rasmussen
!!!CDT: 1685/3//-1750/7/28/
!!!OCY: Deutschland
!!!YEC: Copyright (c) 1994, 2000 Center for Computer Assisted Research in the Humanities
!!!YEM: Rights to all derivative editions reserved
!!!YEN: United States of America
**kern	**kern	**kern	**kern	**silbe
*I:[BASSO]	*I:[TENORE]	*I:[ALTO]	*I:[SOPRANO]	*I:[SOPRANO]
*clefF4	*clefGv2	*clefG2	*clefG2	*
*k[b-]	*k[b-]	*k[b-]	*k[b-]	*
*d:	*d:	*d:	*d:	*
*M4/4	*M4/4	*M4/4	*M4/4	*
=1-	=1-	=1-	=1-	=1-
8DL	4A	8fL	4dd	O
8EJ	.	8gJ	.	.
8FL	4d	4a	4a	wie
8GJ	.	.	.	.
8AL	8cL	4e	4cc	se-
8GJ	8B-J	.	.	.
8FL	4A	8fL	8ddL	-lig
8EJ	.	8gJ	8eeJ	.
=2	=2	=2	=2	=2
4D	4d	4a	4ff	seid
4A	8dL	8.aL	4ee	ihr
.	8cJ	.	.	.
.	.	16gJk	.	.
4B-	8cL	4f	4dd	doch,
.	8B-J	.	.	.
4F	8B-L	4f	4cc	ihr
.	8AJ	.	.	.
=3	=3	=3	=3	=3
4G	8AL	8dL	2b-	From-
.	8G	8B-J	.	.
4C	8F	4c	.	.
.	8EJ	.	.	.
2F;	2F;	2c;	2a;	-men,
=4	=4	=4	=4	=4
8AL	8cL	4f	4ff	die
8FJ	8AJ	.	.	.
4B-	8dL	8fL	4dd	ihr
.	8B-J	8dJ	.	.
8EL	4G	8gL	4cc	durch
8CJ	.	8eJ	.	.
4F	8FL	4c	8aL	den
.	8GJ	.	8b-J	.
=5	=5	=5	=5	=5
8FL	4A	4f	4.cc	Tod
8AAJ	.	.	.	.
8BB-L	4G	4e	.	.
8CJ	.	.	8cc	zu
8DL	8FL	8fL	4a	Gott
8CJ	8cJ	8aJ	.	.
4BB-	4d	8gL	4b-	ge-
.	.	8fJ	.	.
=6	=6	=6	=6	=6
4C	8cL	8fL	2g	-kom-
.	8G	16eL	.	.
.	.	16dJJ	.	.
4CC	8c	4e	.	.
.	8B-J	.	.	.
4FF;	4A;	4c;	4f;	-men!
4F	4c	4f	4a	Ihr
=7	=7	=7	=7	=7
4C	8.cL	8fL	4g	seid
.	.	8eJ	.	.
.	16B-Jk	.	.	.
4D	4A	8eL	4f	ent-
.	.	8dJ	.	.
4GG	8B-L	8dL	2e	-gan-
.	8E	16c#L	.	.
.	.	16BnJJ	.	.
4AA	8A	4c#	.	.
.	8GJ	.	.	.
=8	=8	=8	=8	=8
2BB-	2F	2d	2d	-gen
4F;	4F;	8cL	4a;	al-
.	.	8d;J	.	.
4E	4G	4e	4cc	-ler
=9	=9	=9	=9	=9
8DL	4A	8fL	4dd	Not,
8EJ	.	8gJ	.	.
8FL	4d	8aL	4a	die
8DJ	.	8fJ	.	.
8EL	4c	8gL	4cc	uns
8CJ	.	8eJ	.	.
8FL	4c	4f	4a	noch
8EJ	.	.	.	.
=10	=10	=10	=10	=10
8DL	4B-	4e	4g	h√§lt
8C#J	.	.	.	.
8DL	8AL	4d	4f	ge-
8BB-J	8B-J	.	.	.
8GGL	8B-L	4d	2e	-fan-
8EEJ	8G	.	.	.
4AA	8E	4c#	.	.
.	16AL	.	.	.
.	16GJJ	.	.	.
=11	=11	=11	=11	=11
1DD;	1F#;	1A;	1d;	-gen.
==|!	==|!	==|!	==|!	==|!
*-	*-	*-	*-	*-
!!!RWG: Key is interpreted using the Humdrum key tool.
!!!END: 1994/07/29
!!!EMD: Converted from MuseData to Humdrum Dec 19, 2000, by Andreas Kornstaedt using muse2kern.
!!!EED: Craig Stuart Sapp
!!!EEV: 2024/03/31
!!!ONB: Some non-unicode characters
!!!filter-keyboard: satb2gs
